rospo-dark/16x16/actions/transform-affect-gradient.svg

<svg height="16" viewBox="0 0 16 16" width="16" xmlns="http://www.w3.org/2000/svg"><path d="m2 2v1h .5 10.5v4.5.5h1v-.5-5.5h-11.5zm0 3v1h .5 6.5v2.5.5h1v-.5-3.5h-7.5zm9.007812 4.0136719v1.9941401h-2.0019526v.996094h2.0019526v1.996094l3.003907-2.494141zm-7.007812 1.9785161v1.029296h1v-1.029296zm2.0175781 0v1.029296h.484375 1.0019531.484375v-1.029296h-.484375-1.0019531z" fill="#d3dae3"/><path d="m2 2v3 3 1h8v-1h4v-6z" fill="#d3dae3" opacity=".3"/></svg>

<?xml version="1.0" encoding="UTF-8" standalone="no"?>
<svg xmlns="http://www.w3.org/2000/svg" width="22" height="22" viewBox="0 0 22 22">
 <defs>
  <style type="text/css" id="current-color-scheme">
   .ColorScheme-Text { color:#d3dae3; } .ColorScheme-Highlight { color:#5294e2; }
  </style>
 </defs>
 <path style="fill:currentColor;opacity:1" class="ColorScheme-Text" transform="translate(3 3)" d="M 2 2 L 2 3 L 2.5 3 L 13 3 L 13 7.5 L 13 8 L 14 8 L 14 7.5 L 14 2 L 2.5 2 L 2 2 z M 2 5 L 2 6 L 2.5 6 L 9 6 L 9 8.5 L 9 9 L 10 9 L 10 8.5 L 10 5 L 2.5 5 L 2 5 z M 11.007812 9.0136719 L 11.007812 11.007812 L 9.0058594 11.007812 L 9.0058594 12.003906 L 11.007812 12.003906 L 11.007812 14 L 14.011719 11.505859 L 11.007812 9.0136719 z M 4 10.992188 L 4 12.021484 L 5 12.021484 L 5 10.992188 L 4 10.992188 z M 6.0175781 10.992188 L 6.0175781 12.021484 L 6.5019531 12.021484 L 7.5039062 12.021484 L 7.9882812 12.021484 L 7.9882812 10.992188 L 7.5039062 10.992188 L 6.5019531 10.992188 L 6.0175781 10.992188 z"/>
 <path style="fill:currentColor;opacity:0.3" class="ColorScheme-Text" transform="translate(3 3)" d="M 2 2 L 2 5 L 2 8 L 2 9 L 10 9 L 10 8 L 14 8 L 14 2 L 2 2 z"/>
</svg>
